X: 82
T: Camceto
O: Macedonia
F: http://www.youtube.com/watch?v=wuVsadt5qiM
F: http://www.youtube.com/watch?v=8JoFuVMIy-o
F: http://www.youtube.com/watch?v=DHMTNrP372g
M: 7/8
L: 1/8
K: G
Q: 1/4 = 96
%%MIDI program 20 % Reed Organ
%%MIDI drum d3d4 40 40 90 70 
%%MIDI drumon
  Z                     |BAB/A/ GABc           |\
  d2e-e4-               |e7                    |\
  d3 e2dc               |BAG-G4-               |\
  G7                    | d3 e2dc              |\
  BAG-G4-               |G7                    |\
  G/F/G/A3/2 G/F/E/D/-D2|A/G/A/B/-B-B4-        |\
  B3-B2cd               |G/F/G/A3/2 G/F/E/D/-D2|\
  zGF E4                |D/^C/D/E/-E3(3DEF     |
|:G7                    |(3GFG G G/F/E3        |A7|\
  (3AGA B-B4            | G7                   |\
  (3GFG G G/F/E3        |zGF E4                |\
  (3D^CD E-E4           :|
M:12/8
%%MIDI drum d3d2d2d2d2 40 40 40 40 40 90 70 70 70 90
% 7/8+5/8
Q: 1/4=132
|:^cd2 B2 B2 d2 B3      |BA2 G2A2  B5          |\
  BA2 G2F2 GF E3        |E3 D2 E4 z3           |\
  BA2 G2F2 GF E3        |E3 D2 E4 z3           :|
|:(3ded edcB2 AB AGF    |E2D EFGA d^ce3        |\
  (3ded edcB2 AB AGF    |E2D GFED E2E3         :|



